!!!!SEGMENT: Kumo.krn
!!!OTL: 蜘　蛛
!!!OPR:Eiga Banso Kyokusyu,jidai-geki,kouhen
!!!YOY:1928
!!!ONB: Dairantou
**kern
*I"Part 1
*clefG2
*k[f#]
*G:
*M2/4
=1
8ccL
16bL
16bJJ
16r
16ccKL
8bJ
=2
8ccL
8bJ
16ddLL
16dd
16ee
16ddJJ
=3
16bLL
16b
16b
16bJJ
16eeLL
16dd
16b
16bJJ
=4
16bLL
16bJJ
8r
16ddLL
16dd
16ee
16ddJJ
=5
16bLL
16b
16b
16bJJ
16eeLL
16dd
16b
16bJJ
=6
16bLL
16b
16cc
16bJJ
16aLL
16a
16b
16aJJ
=7
16ff#LL
16ff#
16ff#
16ff#JJ
16bbLL
16aa
16ff#
16ff#JJ
=8
16ff#LL
16ff#
16gg
16ff#JJ
16eeLL
16ee
16ff#
16eeJJ
=9
16ff#LL
16ee
16cc
16ccJJ
16ccLL
16ee
16ff#
16eeJJ
=10
8ccL
8bJ
16aLL
16b
16b
16bJJ
=11
16bLL
16b
16b
16bJJ
16BLL
16d
16e
16cJJ
=12
8B
8r
4r
=13!|:
8ddL
8eeJ
8ddL
16eeL
16ddJJ
=14
16bLL
16ee
16ee
16eeJJ
16eeLL
16ee
16ee
16eeJJ
=15
8eeL
8ff#J
8eeL
16ff#L
16eeJJ
=16
16eeLL
16ff#
16ff#
16ff#JJ
16ff#LL
16ff#
16ff#
16ff#JJ
=17
16aLL
16a
16e
16bJJ
16bLL
16b
16e
16bJJ
=18
16ccLL
16cc
16e
16bJJ
16eeLL
16ee
16e
16eeJJ
=19
16eeLL
16ee
16ff#
16eeJJ
16ddLL
16dd
16dd
16ddJJ
=20
16eeLL
16dd
16b
16bJJ
16bLL
16b
16cc
16bJJ
=21
16aaLL
16aa
16bb
16aaJJ
16ff#LL
16ff#
16ff#
16ff#JJ
=22
16bbLL
16aa
16ff#
16ff#JJ
16ff#LL
16ff#
16gg
16ff#JJ
=23
16eeLL
16ee
16ff#
16eeJJ
16ff#LL
16ee
16cc
16ccJJ
=24
16ccLL
16ee
16ff#
16eeJJ
8ccL
8bJ
=25
16aLL
16b
16b
16bJJ
16bLL
16b
16b
16bJJ
=26
16BLL
16d
16e
16cJJ
8B
8r
=:|!
*-
!!!ENC: Yukiko Yoden
!!!END: 2023/06/05
